logos/VisCy.svg

<svg xmlns="http://www.w3.org/2000/svg" width="426" height="388" style="shape-rendering:geometricPrecision;text-rendering:geometricPrecision;image-rendering:optimizeQuality;fill-rule:evenodd;clip-rule:evenodd"><path style="opacity:1" fill="#fefefe" d="M-.5-.5h426v388H-.5V-.5z"/><path style="opacity:1" fill="#8ab1d3" d="M222.5 65.5c-4.406.248-8.74.915-13 2 4.092-2.727 8.426-3.394 13-2z"/><path style="opacity:1" fill="#3b7eb6" d="M222.5 65.5c21.55 6.435 28.05 20.102 19.5 41a86.16 86.16 0 0 1-7.5 8 4607.278 4607.278 0 0 0-11 4c-.666 7.493-1 15.159-1 23 .002 8.03.669 15.697 2 23 3.48.773 6.813 2.106 10 4 1.333 2 3 3.667 5 5 3.621 3.915 5.621 8.582 6 14h46c1.558-9.543 6.558-16.543 15-21a144.78 144.78 0 0 1 10.5-1c4.586 1.225 9.086 1.892 13.5 2 16.377 10.514 19.21 23.847 8.5 40-7.599 7.922-16.765 10.922-27.5 9-1.602-1.574-3.602-2.241-6-2-1.987-.664-3.654-1.831-5-3.5-13.96-.403-26.293 3.93-37 13-15.523 12.544-23.356 28.711-23.5 48.5 2.442 2.548 4.108 5.548 5 9 3.105 17.473-3.728 28.806-20.5 34a77.1 77.1 0 0 1-13-1c-14.229-5.419-20.396-15.752-18.5-31 2.258-8.238 7.091-14.238 14.5-18 2.98-.12 5.813-.787 8.5-2 .828-15.506.661-30.839-.5-46-.709-.904-1.709-1.237-3-1h-2c-.473-1.406-1.473-2.073-3-2-6.006-2.673-10.34-7.006-13-13a51.569 51.569 0 0 0-1-7h-47v4c-5.934 14.303-16.601 20.303-32 18-1.602-1.574-3.602-2.241-6-2-8.905-5.303-13.905-13.137-15-23.5.64-9.799 4.974-17.299 13-22.5 2.687.159 5.02-.675 7-2.5a112.97 112.97 0 0 1 15-.5c3.527.453 6.527 1.953 9 4.5 2.982.498 5.982.665 9 .5 2.652.09 4.985-.576 7-2 12.172-3.913 22.505-10.58 31-20 2.087-1.085 3.42-2.751 4-5 5.827-9.477 9.494-19.811 11-31-2.631-4.702-4.798-9.702-6.5-15-1.509-13.99 3.991-23.99 16.5-30a68.021 68.021 0 0 1 13-2z"/><path style="opacity:1" fill="#c0d5e7" d="M234.5 114.5c-2.913 2.865-6.579 4.199-11 4 3.581-1.307 7.247-2.641 11-4z"/><path style="opacity:1" fill="#fafbfd" d="M208.5 116.5c1.236 1.543 2.902 2.543 5 3a507.128 507.128 0 0 1 1 45c-11.85 3.018-19.184 10.518-22 22.5-15 .667-30 .667-45 0a41.966 41.966 0 0 0-3-8.5c34.088-7.755 54.754-28.755 62-63 .683.363 1.35.696 2 1z"/><path style="opacity:1" fill="#dbe7f1" d="M208.5 116.5a31.71 31.71 0 0 1 6 2c1.326 15.495 1.326 30.828 0 46a507.128 507.128 0 0 0-1-45c-2.098-.457-3.764-1.457-5-3z"/><path style="opacity:1" fill="#bed4e7" d="M223.5 118.5a541.778 541.778 0 0 0 1 46c-1.331-7.303-1.998-14.97-2-23 0-7.841.334-15.507 1-23z"/><path style="opacity:1" fill="#7aa6cd" d="M188.5 143.5c-.58 2.249-1.913 3.915-4 5 .58-2.249 1.913-3.915 4-5z"/><path style="opacity:1" fill="#77a4cc" d="M330.5 167.5c-4.414-.108-8.914-.775-13.5-2-3.523.207-7.023.54-10.5 1 8.217-4.177 16.217-3.844 24 1z"/><path style="opacity:1" fill="#669ac5" d="M128.5 165.5a112.97 112.97 0 0 0-15 .5c-1.98 1.825-4.313 2.659-7 2.5 1.475-1.91 3.475-3.076 6-3.5 5.516-.817 10.85-.651 16 .5z"/><path style="opacity:1" fill="#bcd3e5" d="M234.5 168.5c2.667.667 4.333 2.333 5 5-2-1.333-3.667-3-5-5z"/><path style="opacity:1" fill="#7ba8ce" d="M153.5 168.5c-2.015 1.424-4.348 2.09-7 2 2.015-1.424 4.348-2.09 7-2z"/><path style="opacity:1" fill="#8ab2d3" d="M223.5 171.5a73.314 73.314 0 0 0-12 1c1.962-1.517 4.295-2.184 7-2 1.869.007 3.536.34 5 1z"/><path style="opacity:1" fill="#fbfcfd" d="M223.5 171.5c12.846 4.014 17.68 12.68 14.5 26-7.21 12.677-17.376 15.844-30.5 9.5-11.199-12.011-10.533-23.344 2-34a2.428 2.428 0 0 1 2-.5 73.314 73.314 0 0 1 12-1z"/><path style="opacity:1" fill="#d7e5f0" d="M194.5 201.5c-1.238-1.714-1.905-3.714-2-6h-45c.237 1.291-.096 2.291-1 3v-4h47a51.569 51.569 0 0 1 1 7z"/><path style="opacity:1" fill="#dbe8f2" d="M245.5 195.5c7.493-.666 15.159-1 23-1 8.03.002 15.697.669 23 2a541.778 541.778 0 0 0-46-1z"/><path style="opacity:1" fill="#fcfdfe" d="M245.5 195.5a541.778 541.778 0 0 1 46 1c1.17 2.15 2.17 4.484 3 7-24.352 3.827-42.352 16.493-54 38-1.406.473-2.073 1.473-2 3a27.718 27.718 0 0 0-3 9c-1.972 2.584-2.972 5.584-3 9 .219 1.175-.114 2.175-1 3-1.836-.528-3.503-1.194-5-2-.709-.904-1.709-1.237-3-1v-45c2.51.446 4.51-.22 6-2 8.659-3.994 13.992-10.66 16-20z"/><path style="opacity:1" fill="#75a2cb" d="M108.5 214.5c2.398-.241 4.398.426 6 2-2.398.241-4.398-.426-6-2z"/><path style="opacity:1" fill="#abc7df" d="M207.5 214.5c1.527-.073 2.527.594 3 2-1.527.073-2.527-.594-3-2z"/><path style="opacity:1" fill="#79a5cc" d="M305.5 214.5c2.398-.241 4.398.426 6 2-2.398.241-4.398-.426-6-2z"/><path style="opacity:1" fill="#dfeaf3" d="M212.5 216.5c1.291-.237 2.291.096 3 1a507.055 507.055 0 0 1-1 45c.626-15.575-.04-30.908-2-46z"/><path style="opacity:1" fill="#81acd0" d="M215.5 217.5c1.161 15.161 1.328 30.494.5 46a22.684 22.684 0 0 1-8.5 2 24.614 24.614 0 0 1 7-3 507.055 507.055 0 0 0 1-45z"/><path style="opacity:1" fill="#bed4e7" d="M229.5 215.5c-1.49 1.78-3.49 2.446-6 2v45c1.291-.237 2.291.096 3 1h-4v-47a21.435 21.435 0 0 0 7-1z"/><path style="opacity:1" fill="#99bbd9" d="M240.5 241.5c.073 1.527-.594 2.527-2 3-.073-1.527.594-2.527 2-3z"/><path style="opacity:1" fill="#90b5d5" d="M235.5 253.5c-.19 3.355-1.19 6.355-3 9 .028-3.416 1.028-6.416 3-9z"/><path style="opacity:1" fill="#77a5cc" d="M211.5 314.5a77.1 77.1 0 0 0 13 1c-1.464.66-3.131.993-5 1-2.986.118-5.652-.548-8-2z"/></svg>

<?xml version="1.0" encoding="UTF-8"?>
<!DOCTYPE svg PUBLIC "-//W3C//DTD SVG 1.1//EN" "http://www.w3.org/Graphics/SVG/1.1/DTD/svg11.dtd">
<svg xmlns="http://www.w3.org/2000/svg" version="1.1" width="426px" height="388px" style="shape-rendering:geometricPrecision; text-rendering:geometricPrecision; image-rendering:optimizeQuality; fill-rule:evenodd; clip-rule:evenodd" xmlns:xlink="http://www.w3.org/1999/xlink">
<g><path style="opacity:1" fill="#fefefe" d="M -0.5,-0.5 C 141.5,-0.5 283.5,-0.5 425.5,-0.5C 425.5,128.833 425.5,258.167 425.5,387.5C 283.5,387.5 141.5,387.5 -0.5,387.5C -0.5,258.167 -0.5,128.833 -0.5,-0.5 Z"/></g>
<g><path style="opacity:1" fill="#8ab1d3" d="M 222.5,65.5 C 218.094,65.748 213.76,66.4147 209.5,67.5C 213.592,64.7731 217.926,64.1064 222.5,65.5 Z"/></g>
<g><path style="opacity:1" fill="#3b7eb6" d="M 222.5,65.5 C 244.05,71.9349 250.55,85.6015 242,106.5C 239.634,109.364 237.134,112.031 234.5,114.5C 230.747,115.859 227.081,117.193 223.5,118.5C 222.834,125.993 222.5,133.659 222.5,141.5C 222.502,149.53 223.169,157.197 224.5,164.5C 227.98,165.273 231.313,166.606 234.5,168.5C 235.833,170.5 237.5,172.167 239.5,173.5C 243.121,177.415 245.121,182.082 245.5,187.5C 260.833,187.5 276.167,187.5 291.5,187.5C 293.058,177.957 298.058,170.957 306.5,166.5C 309.977,166.04 313.477,165.707 317,165.5C 321.586,166.725 326.086,167.392 330.5,167.5C 346.877,178.014 349.71,191.347 339,207.5C 331.401,215.422 322.235,218.422 311.5,216.5C 309.898,214.926 307.898,214.259 305.5,214.5C 303.513,213.836 301.846,212.669 300.5,211C 286.54,210.597 274.207,214.93 263.5,224C 247.977,236.544 240.144,252.711 240,272.5C 242.442,275.048 244.108,278.048 245,281.5C 248.105,298.973 241.272,310.306 224.5,315.5C 220.131,315.533 215.798,315.2 211.5,314.5C 197.271,309.081 191.104,298.748 193,283.5C 195.258,275.262 200.091,269.262 207.5,265.5C 210.48,265.38 213.313,264.713 216,263.5C 216.828,247.994 216.661,232.661 215.5,217.5C 214.791,216.596 213.791,216.263 212.5,216.5C 211.833,216.5 211.167,216.5 210.5,216.5C 210.027,215.094 209.027,214.427 207.5,214.5C 201.494,211.827 197.16,207.494 194.5,201.5C 194.326,199.139 193.993,196.806 193.5,194.5C 177.833,194.5 162.167,194.5 146.5,194.5C 146.5,195.833 146.5,197.167 146.5,198.5C 140.566,212.803 129.899,218.803 114.5,216.5C 112.898,214.926 110.898,214.259 108.5,214.5C 99.595,209.197 94.595,201.363 93.5,191C 94.1407,181.201 98.4741,173.701 106.5,168.5C 109.187,168.659 111.52,167.825 113.5,166C 118.489,165.501 123.489,165.334 128.5,165.5C 132.027,165.953 135.027,167.453 137.5,170C 140.482,170.498 143.482,170.665 146.5,170.5C 149.152,170.59 151.485,169.924 153.5,168.5C 165.672,164.587 176.005,157.92 184.5,148.5C 186.587,147.415 187.92,145.749 188.5,143.5C 194.327,134.023 197.994,123.689 199.5,112.5C 196.869,107.798 194.702,102.798 193,97.5C 191.491,83.5091 196.991,73.5091 209.5,67.5C 213.76,66.4147 218.094,65.748 222.5,65.5 Z"/></g>
<g><path style="opacity:1" fill="#c0d5e7" d="M 234.5,114.5 C 231.587,117.365 227.921,118.699 223.5,118.5C 227.081,117.193 230.747,115.859 234.5,114.5 Z"/></g>
<g><path style="opacity:1" fill="#fafbfd" d="M 208.5,116.5 C 209.736,118.043 211.402,119.043 213.5,119.5C 214.499,134.485 214.833,149.485 214.5,164.5C 202.65,167.518 195.316,175.018 192.5,187C 177.5,187.667 162.5,187.667 147.5,187C 146.813,184.081 145.813,181.248 144.5,178.5C 178.588,170.745 199.254,149.745 206.5,115.5C 207.183,115.863 207.85,116.196 208.5,116.5 Z"/></g>
<g><path style="opacity:1" fill="#dbe7f1" d="M 208.5,116.5 C 210.55,116.961 212.55,117.628 214.5,118.5C 215.826,133.995 215.826,149.328 214.5,164.5C 214.833,149.485 214.499,134.485 213.5,119.5C 211.402,119.043 209.736,118.043 208.5,116.5 Z"/></g>
<g><path style="opacity:1" fill="#bed4e7" d="M 223.5,118.5 C 223.183,133.911 223.517,149.245 224.5,164.5C 223.169,157.197 222.502,149.53 222.5,141.5C 222.5,133.659 222.834,125.993 223.5,118.5 Z"/></g>
<g><path style="opacity:1" fill="#7aa6cd" d="M 188.5,143.5 C 187.92,145.749 186.587,147.415 184.5,148.5C 185.08,146.251 186.413,144.585 188.5,143.5 Z"/></g>
<g><path style="opacity:1" fill="#77a4cc" d="M 330.5,167.5 C 326.086,167.392 321.586,166.725 317,165.5C 313.477,165.707 309.977,166.04 306.5,166.5C 314.717,162.323 322.717,162.656 330.5,167.5 Z"/></g>
<g><path style="opacity:1" fill="#669ac5" d="M 128.5,165.5 C 123.489,165.334 118.489,165.501 113.5,166C 111.52,167.825 109.187,168.659 106.5,168.5C 107.975,166.59 109.975,165.424 112.5,165C 118.016,164.183 123.35,164.349 128.5,165.5 Z"/></g>
<g><path style="opacity:1" fill="#bcd3e5" d="M 234.5,168.5 C 237.167,169.167 238.833,170.833 239.5,173.5C 237.5,172.167 235.833,170.5 234.5,168.5 Z"/></g>
<g><path style="opacity:1" fill="#7ba8ce" d="M 153.5,168.5 C 151.485,169.924 149.152,170.59 146.5,170.5C 148.515,169.076 150.848,168.41 153.5,168.5 Z"/></g>
<g><path style="opacity:1" fill="#8ab2d3" d="M 223.5,171.5 C 219.466,171.505 215.466,171.838 211.5,172.5C 213.462,170.983 215.795,170.316 218.5,170.5C 220.369,170.507 222.036,170.84 223.5,171.5 Z"/></g>
<g><path style="opacity:1" fill="#fbfcfd" d="M 223.5,171.5 C 236.346,175.514 241.18,184.18 238,197.5C 230.79,210.177 220.624,213.344 207.5,207C 196.301,194.989 196.967,183.656 209.5,173C 210.094,172.536 210.761,172.369 211.5,172.5C 215.466,171.838 219.466,171.505 223.5,171.5 Z"/></g>
<g><path style="opacity:1" fill="#d7e5f0" d="M 194.5,201.5 C 193.262,199.786 192.595,197.786 192.5,195.5C 177.5,195.5 162.5,195.5 147.5,195.5C 147.737,196.791 147.404,197.791 146.5,198.5C 146.5,197.167 146.5,195.833 146.5,194.5C 162.167,194.5 177.833,194.5 193.5,194.5C 193.993,196.806 194.326,199.139 194.5,201.5 Z"/></g>
<g><path style="opacity:1" fill="#dbe8f2" d="M 245.5,195.5 C 252.993,194.834 260.659,194.5 268.5,194.5C 276.53,194.502 284.197,195.169 291.5,196.5C 276.245,195.517 260.911,195.183 245.5,195.5 Z"/></g>
<g><path style="opacity:1" fill="#fcfdfe" d="M 245.5,195.5 C 260.911,195.183 276.245,195.517 291.5,196.5C 292.67,198.65 293.67,200.984 294.5,203.5C 270.148,207.327 252.148,219.993 240.5,241.5C 239.094,241.973 238.427,242.973 238.5,244.5C 236.977,247.345 235.977,250.345 235.5,253.5C 233.528,256.084 232.528,259.084 232.5,262.5C 232.719,263.675 232.386,264.675 231.5,265.5C 229.664,264.972 227.997,264.306 226.5,263.5C 225.791,262.596 224.791,262.263 223.5,262.5C 223.5,247.5 223.5,232.5 223.5,217.5C 226.01,217.946 228.01,217.28 229.5,215.5C 238.159,211.506 243.492,204.84 245.5,195.5 Z"/></g>
<g><path style="opacity:1" fill="#75a2cb" d="M 108.5,214.5 C 110.898,214.259 112.898,214.926 114.5,216.5C 112.102,216.741 110.102,216.074 108.5,214.5 Z"/></g>
<g><path style="opacity:1" fill="#abc7df" d="M 207.5,214.5 C 209.027,214.427 210.027,215.094 210.5,216.5C 208.973,216.573 207.973,215.906 207.5,214.5 Z"/></g>
<g><path style="opacity:1" fill="#79a5cc" d="M 305.5,214.5 C 307.898,214.259 309.898,214.926 311.5,216.5C 309.102,216.741 307.102,216.074 305.5,214.5 Z"/></g>
<g><path style="opacity:1" fill="#dfeaf3" d="M 212.5,216.5 C 213.791,216.263 214.791,216.596 215.5,217.5C 215.829,232.676 215.496,247.676 214.5,262.5C 215.126,246.925 214.46,231.592 212.5,216.5 Z"/></g>
<g><path style="opacity:1" fill="#81acd0" d="M 215.5,217.5 C 216.661,232.661 216.828,247.994 216,263.5C 213.313,264.713 210.48,265.38 207.5,265.5C 209.691,264.131 212.025,263.131 214.5,262.5C 215.496,247.676 215.829,232.676 215.5,217.5 Z"/></g>
<g><path style="opacity:1" fill="#bed4e7" d="M 229.5,215.5 C 228.01,217.28 226.01,217.946 223.5,217.5C 223.5,232.5 223.5,247.5 223.5,262.5C 224.791,262.263 225.791,262.596 226.5,263.5C 225.167,263.5 223.833,263.5 222.5,263.5C 222.5,247.833 222.5,232.167 222.5,216.5C 224.903,216.552 227.236,216.219 229.5,215.5 Z"/></g>
<g><path style="opacity:1" fill="#99bbd9" d="M 240.5,241.5 C 240.573,243.027 239.906,244.027 238.5,244.5C 238.427,242.973 239.094,241.973 240.5,241.5 Z"/></g>
<g><path style="opacity:1" fill="#90b5d5" d="M 235.5,253.5 C 235.31,256.855 234.31,259.855 232.5,262.5C 232.528,259.084 233.528,256.084 235.5,253.5 Z"/></g>
<g><path style="opacity:1" fill="#77a5cc" d="M 211.5,314.5 C 215.798,315.2 220.131,315.533 224.5,315.5C 223.036,316.16 221.369,316.493 219.5,316.5C 216.514,316.618 213.848,315.952 211.5,314.5 Z"/></g>
</svg>
